src/lib/packages/icons/src/assets/filled/dollar-receive-circle.svg

<svg width="24" height="24" viewBox="0 0 24 24" fill="none" xmlns="http://www.w3.org/2000/svg">
<path d="M21.684 9.51404C21.641 9.34704 21.465 9.26201 21.3 9.31201C20.741 9.47901 20.139 9.53895 19.52 9.47595C17.613 9.28395 15.986 7.825 15.597 5.948C15.387 4.934 15.526 3.968 15.897 3.146C15.968 2.988 15.906 2.79903 15.746 2.73303C14.593 2.25503 13.325 2 11.999 2C6.38399 2 1.845 6.63503 2.003 12.285C2.148 17.502 6.497 21.85 11.714 21.996C17.364 22.154 21.999 17.615 21.999 12C22 11.141 21.89 10.305 21.684 9.51404ZM14.203 15.869C13.798 16.274 13.283 16.521 12.728 16.601V17C12.728 17.414 12.392 17.75 11.978 17.75C11.564 17.75 11.228 17.414 11.228 17V16.599C10.085 16.413 9.178 15.492 9.044 14.306C8.998 13.894 9.29399 13.5231 9.70599 13.4771C10.118 13.4251 10.488 13.727 10.535 14.139C10.599 14.709 11.079 15.139 11.651 15.139H12.351C12.649 15.139 12.93 15.022 13.143 14.809C13.356 14.596 13.473 14.315 13.473 14.017C13.473 13.502 13.123 13.055 12.622 12.928L11.014 12.5291C10.444 12.3841 9.936 12.053 9.58 11.594C9.226 11.146 9.028 10.572 9.028 9.98499C9.028 8.68399 9.983 7.60901 11.228 7.40601V7C11.228 6.586 11.564 6.25 11.978 6.25C12.392 6.25 12.728 6.586 12.728 7V7.396C13.892 7.565 14.822 8.49197 14.957 9.69397C15.003 10.106 14.707 10.4769 14.295 10.5229C13.884 10.5729 13.512 10.273 13.466 9.86096C13.402 9.29096 12.922 8.86096 12.35 8.86096H11.65C11.031 8.86096 10.528 9.36403 10.528 9.98303C10.528 10.234 10.611 10.478 10.761 10.668C10.919 10.872 11.131 11.01 11.379 11.072L12.987 11.4709C14.157 11.7669 14.973 12.813 14.973 14.015C14.972 14.715 14.699 15.373 14.203 15.869ZM22.53 5.53003L20.53 7.53003C20.461 7.59903 20.378 7.65402 20.286 7.69202C20.194 7.73002 20.097 7.75 19.999 7.75C19.901 7.75 19.804 7.73002 19.712 7.69202C19.62 7.65402 19.537 7.59903 19.468 7.53003L17.468 5.53003C17.175 5.23703 17.175 4.76199 17.468 4.46899C17.761 4.17599 18.236 4.17599 18.529 4.46899L19.249 5.18896V2C19.249 1.586 19.585 1.25 19.999 1.25C20.413 1.25 20.749 1.586 20.749 2V5.18896L21.469 4.46899C21.762 4.17599 22.237 4.17599 22.53 4.46899C22.823 4.76199 22.823 5.23703 22.53 5.53003Z" fill="currentColor"/>
</svg>

<svg xmlns="http://www.w3.org/2000/svg" width="24" height="24" fill="none"><path fill="currentColor" d="M21.684 9.514c-.043-.167-.219-.252-.384-.202a4.584 4.584 0 0 1-1.78.164c-1.907-.192-3.534-1.651-3.923-3.528a4.533 4.533 0 0 1 .3-2.802c.071-.158.009-.347-.151-.413A9.765 9.765 0 0 0 11.999 2C6.384 2 1.845 6.635 2.003 12.285c.145 5.217 4.494 9.565 9.711 9.711 5.65.158 10.285-4.381 10.285-9.996a9.823 9.823 0 0 0-.315-2.486Zm-7.481 6.355c-.405.405-.92.652-1.475.732V17a.75.75 0 0 1-1.5 0v-.401a2.62 2.62 0 0 1-2.184-2.293.75.75 0 0 1 .662-.829.746.746 0 0 1 .829.662c.064.57.544 1 1.116 1h.7c.298 0 .579-.117.792-.33.213-.213.33-.494.33-.792 0-.515-.35-.962-.851-1.089l-1.608-.399a2.643 2.643 0 0 1-1.434-.935 2.61 2.61 0 0 1-.552-1.609c0-1.301.955-2.376 2.2-2.579V7a.75.75 0 0 1 1.5 0v.396a2.617 2.617 0 0 1 2.229 2.298.75.75 0 1 1-1.491.167c-.064-.57-.544-1-1.116-1h-.7a1.123 1.123 0 0 0-.271 2.211l1.608.399a2.624 2.624 0 0 1 1.986 2.544 2.61 2.61 0 0 1-.77 1.854ZM22.53 5.53l-2 2a.749.749 0 0 1-.818.162.749.749 0 0 1-.244-.162l-2-2a.75.75 0 0 1 1.061-1.061l.72.72V2a.75.75 0 0 1 1.5 0v3.189l.72-.72A.75.75 0 1 1 22.53 5.53Z"/></svg>
